assets/icons/icon-adduser/web/icon-adduser.svg

<?xml version="1.0" encoding="UTF-8" standalone="no"?>
<svg width="48px" height="48px" viewBox="0 0 48 48" version="1.1" xmlns="http://www.w3.org/2000/svg" xmlns:xlink="http://www.w3.org/1999/xlink">
    <!-- Generator: Sketch 45.2 (43514) - http://www.bohemiancoding.com/sketch -->
    <title>icon-adduser</title>
    <desc>Created with Sketch.</desc>
    <defs></defs>
    <g id="Symbols" stroke="none" stroke-width="1" fill="none" fill-rule="evenodd">
        <g id="icon-adduser" fill="#2D2D2D">
            <g transform="translate(7.000000, 12.000000)">
                <path d="M12,2.5 C6.75291041,2.5 2.5,6.75291041 2.5,12 C2.5,17.2464333 6.75329958,21.5 12,21.5 C17.2463723,21.5 21.5,17.2462387 21.5,12 C21.5,6.753105 17.2467615,2.5 12,2.5 Z M12,0.5 C18.3511364,0.5 23.5,5.64834091 23.5,12 C23.5,18.3506136 18.3511364,23.5 12,23.5 C5.64834091,23.5 0.5,18.3506136 0.5,12 C0.5,5.64834091 5.64834091,0.5 12,0.5 Z" id="Path" fill-rule="nonzero"></path>
                <path d="M12,21.4545455 C13.9227085,21.4545455 15.7546265,20.8742672 17.3039832,19.8168078 C16.750603,19.363478 16.207266,18.9916292 15.7211036,18.7620861 C14.2304839,18.056616 13.3153383,17.2316735 12.93474,16.1408632 C12.6250061,15.2506595 12.726988,14.2932442 13.1989884,13.3355425 C13.3626922,13.0030625 13.4875614,12.7721477 13.7479399,12.307485 C13.9472964,11.9515154 13.9700303,11.9104691 14.0396491,11.7774879 C14.4828375,10.9309391 14.6428864,10.1632593 14.6428864,8.32418182 C14.6428864,6.44335835 14.1317059,5.68704545 13.6063409,5.68704545 C13.5414047,5.68704545 13.5387789,5.68766522 13.3591706,5.7519004 C12.7463993,5.9691104 12.2927488,6.06476327 11.4975546,6.07842119 C11.2198882,6.08318261 11.0993164,6.08747922 10.9603447,6.10008864 C10.1524753,6.17338967 9.86363636,6.51315813 9.86363636,8.1935 C9.86363636,9.96011785 10.1310479,10.9474653 10.7402592,12.0810949 C10.793424,12.1800248 10.8207619,12.2296368 10.941464,12.4473359 C11.0525519,12.6486603 11.0924359,12.7215358 11.1490097,12.8278826 C11.257982,13.0327276 11.3466975,13.2120517 11.4274295,13.3949806 C12.3903932,15.5805373 11.5252625,17.5694319 9.23394257,18.5815201 C8.06366118,19.0988041 7.4653288,19.4019994 6.80495518,19.8925101 C8.33108021,20.9021778 10.1223597,21.4545455 12,21.4545455 Z M12,23.4545455 C9.2277025,23.4545455 6.6067862,22.4591701 4.54006781,20.6823 L3.66563463,19.9305023 L4.53365354,19.1713077 C5.9017653,17.9747174 6.57136122,17.5717582 8.42561397,16.7521473 C9.7389719,16.1720301 10.0998936,15.3422883 9.5974526,14.2019404 C9.5389352,14.0693474 9.47103318,13.9320944 9.38330854,13.7671906 C9.33331238,13.6732084 9.29621573,13.6054258 9.19134368,13.4153621 C9.06673665,13.1906244 9.03756191,13.1376789 8.97853616,13.0278429 C8.21829863,11.6131814 7.86363636,10.3036836 7.86363636,8.1935 C7.86363636,5.50815349 8.90943024,4.27796009 10.7796196,4.10827077 C10.9833884,4.08978206 11.1368984,4.08431169 11.4632361,4.07871565 C12.0198558,4.06915539 12.2674595,4.01694779 12.6882964,3.86777732 C13.0633668,3.73362808 13.2607262,3.68704545 13.6063409,3.68704545 C15.439943,3.68704545 16.6428864,5.46685073 16.6428864,8.32418182 C16.6428864,10.4660496 16.4173339,11.54792 15.8115202,12.7051046 C15.7291053,12.862528 15.7045133,12.9069292 15.4928038,13.2849563 C15.2487849,13.7204241 15.136866,13.9273906 14.9931153,14.219346 C14.7451836,14.7224062 14.7015,15.1325115 14.8233822,15.4828134 C14.9971677,15.980889 15.5247706,16.4564878 16.5758411,16.9539316 C17.5579938,17.4176574 18.5730216,18.2086388 19.5572448,19.1419388 L20.3542487,19.897706 L19.5272391,20.6205162 C17.4507489,22.4353781 14.8031537,23.4545455 12,23.4545455 Z" id="Path" fill-rule="nonzero"></path>
                <rect id="Rectangle" x="26" y="12" width="10" height="2" rx="1"></rect>
                <rect id="Rectangle-Copy" x="26" y="12" width="10" height="2" rx="1"></rect>
            </g>
        </g>
    </g>
</svg>

<svg width="48" height="48" viewBox="0 0 48 48" xmlns="http://www.w3.org/2000/svg"><title>icon-adduser</title><g transform="translate(7 12)" fill="#2D2D2D" fill-rule="evenodd"><path d="M12 2.5a9.5 9.5 0 1 0 0 19 9.5 9.5 0 0 0 0-19zm0-2C18.351.5 23.5 5.648 23.5 12c0 6.35-5.149 11.5-11.5 11.5C5.648 23.5.5 18.35.5 12 .5 5.648 5.648.5 12 .5z" fill-rule="nonzero"/><path d="M12 21.455c1.923 0 3.755-.58 5.304-1.638-.553-.454-1.097-.825-1.583-1.055-1.49-.705-2.406-1.53-2.786-2.621-.31-.89-.208-1.848.264-2.805.164-.333.289-.564.549-1.029.2-.355.222-.397.292-.53.443-.846.603-1.614.603-3.453 0-1.88-.511-2.637-1.037-2.637-.065 0-.067 0-.247.065-.613.217-1.066.313-1.861.326a6.91 6.91 0 0 0-.538.022c-.808.073-1.096.413-1.096 2.094 0 1.766.267 2.753.876 3.887.053.099.08.149.201.366.112.202.151.275.208.38.109.206.198.385.278.568.963 2.186.098 4.174-2.193 5.187-1.17.517-1.769.82-2.429 1.31A9.384 9.384 0 0 0 12 21.456zm0 2c-2.772 0-5.393-.996-7.46-2.773l-.874-.751.868-.76c1.368-1.196 2.037-1.6 3.892-2.419 1.313-.58 1.674-1.41 1.171-2.55a6.54 6.54 0 0 0-.214-.435c-.05-.094-.087-.162-.192-.352a28.433 28.433 0 0 1-.212-.387c-.76-1.415-1.115-2.724-1.115-4.835 0-2.685 1.045-3.915 2.916-4.085.203-.018.357-.024.683-.03.557-.009.804-.061 1.225-.21.375-.134.573-.181.918-.181 1.834 0 3.037 1.78 3.037 4.637 0 2.142-.226 3.224-.831 4.381-.083.158-.107.202-.32.58-.243.435-.355.642-.499.934-.248.503-.292.914-.17 1.264.174.498.702.973 1.753 1.47.982.465 1.997 1.256 2.981 2.189l.797.756-.827.723A11.4 11.4 0 0 1 12 23.455z" fill-rule="nonzero"/><rect x="26" y="12" width="10" height="2" rx="1"/><rect x="26" y="12" width="10" height="2" rx="1"/></g></svg>
